X: 28915
T: Na Crocáin Árda
R: jig
M: 6/8
K: Dmajor
F2E EDB,|A,B,C D2A|Bde dBA|BAF A2B|
d2e dBA|BAF AdB|AFE EDB,|A,B,C|1 D2E:|2 D2A||
B3 B2A|BAF D2A|B2A Bde|dBA d2e|
f2b afe|f2e dBA|dDB AFB|AFE|1 DFA:|2 D2E||

